images/icon_play.svg

<svg width="41" height="41" viewBox="0 0 41 41" fill="none" xmlns="http://www.w3.org/2000/svg">
<path d="M20.5 1.5375C30.955 1.5375 39.4625 10.045 39.4625 20.5C39.4625 30.955 30.955 39.4625 20.5 39.4625C10.045 39.4625 1.5375 30.955 1.5375 20.5C1.5375 10.045 10.045 1.5375 20.5 1.5375ZM20.5 0C9.17375 0 0 9.17375 0 20.5C0 31.8263 9.17375 41 20.5 41C31.8263 41 41 31.8263 41 20.5C41 9.17375 31.8263 0 20.5 0Z" fill="white"/>
<path d="M17.7831 27.0086L27.5206 21.3711C27.8281 21.1661 28.0331 20.8586 28.0331 20.4999C28.0331 20.1411 27.8281 19.7824 27.5206 19.6286L17.7831 13.9911C17.4756 13.7861 17.0656 13.7861 16.7581 13.9911C16.4506 14.1961 16.2456 14.5036 16.2456 14.8624V26.1374C16.2456 26.4961 16.4506 26.8549 16.7581 27.0086C17.0656 27.1624 17.4244 27.2136 17.7831 27.0086Z" fill="white"/>
</svg>

<svg width="41" height="41" fill="none" xmlns="http://www.w3.org/2000/svg"><path d="M20.5 1.538c10.455 0 18.962 8.507 18.962 18.962S30.956 39.462 20.5 39.462 1.538 30.956 1.538 20.5 10.045 1.538 20.5 1.538zM20.5 0C9.174 0 0 9.174 0 20.5S9.174 41 20.5 41 41 31.826 41 20.5 31.826 0 20.5 0z" fill="#fff"/><path d="M17.783 27.009l9.738-5.638c.307-.205.512-.512.512-.871s-.205-.718-.512-.871l-9.738-5.638a.931.931 0 00-1.025 0c-.307.205-.512.513-.512.871v11.275c0 .36.205.718.512.872.308.153.666.205 1.025 0z" fill="#fff"/></svg>
